X: 1
T: New Road to Alston
C: trad. US arr. Rachel Maloney / Rustic Roots
%D:
R: march, reel
S: https://www.patreon.com/posts/rustic-roots-27198819
Z: 2020 John Chambers <jc:trillian.mit.edu>
M: C|
L: 1/8
K: Em
"^A"\
|:"Am"A3B c2c2 | "Am"A3B c2c2 | edcB A2A2 | edcB A2A2 |\
| "Am"A3B c2c2 | "Am"A3B c2c2 | e2f2 edcB | A8 :|
"^B"\
|:A2A2 c2c2 | a2a2 e4 | edcA [a2A2][a2A2] | edcA [a2A2][a2A2] |\
| A2A2 c2c2 | a2a2 e4 | e2f2 edcB | A8 :|
